X:146
T:score228
L:1/4
Q:1/4=96
M:4/4
I:linebreak $
K:Bb
 d3 A | B2 ^F G | A2 A (d |$ c A !>!c3/2 B/ | A2) !>!d2- | d c/B/ c2 | B2 (!>!d2- |$ d c B2- | %8
 B) G/G/ A2 | G4 |] %10
